source/images/icon/bank.svg

<svg fill="#111827" height="33" viewBox="0 0 30 33" width="30" xmlns="http://www.w3.org/2000/svg"><path d="m3.71412 14.0483v10.6666h4.57143v-10.6666zm9.14288 0v10.6666h4.5714v-10.6666zm-12.190496 18.2857h28.952396v-4.5714h-28.952396zm21.333296-18.2857v10.6666h4.5715v-10.6666zm-6.8571-13.714316-14.476196 7.619046v3.04767h28.952396v-3.04767z"/></svg>

<svg width="30" height="33" viewBox="0 0 30 33" fill="#111827" xmlns="http://www.w3.org/2000/svg">
<path d="M3.71412 14.0483V24.7149H8.28555V14.0483H3.71412ZM12.857 14.0483V24.7149H17.4284V14.0483H12.857ZM0.666504 32.334H29.6189V27.7626H0.666504V32.334ZM21.9998 14.0483V24.7149H26.5713V14.0483H21.9998ZM15.1427 0.333984L0.666504 7.95303V11.0007H29.6189V7.95303L15.1427 0.333984Z"/>
</svg>
